X: 2205
T: Austrian's Gallop
R: polka
M: 2/4
K: Gmajor
|:F/A/c/d/ ba|F/A/c/d/ gf|d/e/d/e/ fe|d/c/B/c/ A2|
F/A/c/d/ ba|F/A/c/d/ gf|d/e/f/e/ c'/b/g/e/|d z D z:|
|:d'/g/b/d/ g/B/d/G/|Fe e/d/e|Fc c/B/c|Bd d/c/d|
d'/g/b/d/ g/B/d/G/|Fe e/d/e|d/e/f/g/ a/b/b/f/|a/g/g/f/ g2:|

